static/assets/images/tokens/arb-mono.svg

<svg width="256" height="256" viewBox="0 0 256 256" fill="none" xmlns="http://www.w3.org/2000/svg">
<path fill-rule="evenodd" clip-rule="evenodd" d="M256 128C256 148.474 251.095 168.443 241.935 186.334L184.4 97.536L162.454 134.39L216.252 220.712C213.207 223.611 210.033 226.347 206.744 228.914L154.744 147.468L129.536 189.969L167.704 249.686C155.001 253.832 141.612 256 128 256C111.898 256 96.1092 252.966 81.3973 247.215L177.92 85.3056L134.301 85.6023L47.4047 227.441C43.9624 224.651 40.6522 221.672 37.4903 218.51L121.839 85.3056L105.222 85.0089C91.2756 84.7122 75.8458 88.2724 69.0211 99.5463L13.6278 185.472C4.74927 167.802 0 148.146 0 128C0 94.0523 13.4857 61.495 37.4903 37.4903C61.495 13.4857 94.0523 0 128 0C161.948 0 194.505 13.4857 218.51 37.4903C242.514 61.495 256 94.0523 256 128Z" fill="black"/>
</svg>

<svg xmlns="http://www.w3.org/2000/svg" fill="none" viewBox="0 0 256 256"><path fill="#000" fill-rule="evenodd" d="M256 128c0 20.474-4.905 40.443-14.065 58.334L184.4 97.536l-21.946 36.854 53.798 86.322a128 128 0 0 1-9.508 8.202l-52-81.446-25.208 42.501 38.168 59.717A128 128 0 0 1 128 256c-16.102 0-31.89-3.034-46.603-8.785l96.523-161.91-43.619.297-86.896 141.839a128 128 0 0 1-9.915-8.931L121.84 85.306l-16.617-.297c-13.946-.297-29.376 3.263-36.2 14.537l-55.394 85.926A128 128 0 1 1 256 128" clip-rule="evenodd"/></svg>
